!!!OTL: MF[ERK2 AUF O CHRIST
!!!ARE: Europa, Mitteleuropa, Deutschland, Unter - Lahnkreis, Becheln;     Kreis St. Goarshausen,
!!Welterod
!!!SCT: E0867
!!!YEM: Copyright 1995, estate of Helmut Schaffrath.
**kern
*ICvox
*Ivox
*M6/8
*k[b-]
*F:
{8c
=1
4f
8f
8a
8g
8f
=2
4g
8g
4g}
{8a
=3
4f
8f
8a
8g
8f
=4
4.g}
{4.cc
=5
4.b-
4.a
=6
4.g
4r}
{8g
=7
4g
8a
8b-
8a
8g
=8
4f
8a
8cc
8b-}
{8a
=9
4g
8a
8b-
8a
8g
=10
4f
8a
8cc
8b-}
{8a
=11
4.g
4f
8a
=12
4cc
8dd
4cc}
{8b-
=13
4.a
4.g
=14
4.f
4r}
==
!!!AGN: Hochzeits -, Ehestands - Lied, Verlobung
!!!ONB: ESAC (Essen Associative Code) Database: ERK2
!!!AMT: compound duple
!!!AIN: vox
!!!EED: Helmut Schaffrath
!!!EEV: 1.0
*-
!!!title: @{OTL} [@{SCT}]
